X:1
T:Buckinghamshire, 87.87.87 D
T:Buckinghamshire, 87.87.87 D
T:E. C. Huckabee, 1913
T:Public Domain Courtesy of the Cyber Hymnal™
C:E. C. Huckabee, 1913
Z:Public Domain
Z:Courtesy of the Cyber Hymnal™
%%score ( 1 2 ) ( 3 4 )
L:1/8
Q:1/4=90
M:3/4
K:Bb
V:1 treble 
V:2 treble 
V:3 bass 
V:4 bass 
V:1
 [DF]>[^C=E] | [EG]2 [DF]2 [CE]>[B,D] | [DF]2 [CE]2 [A,C]>[B,D] | [CE]2 [A,C]2 [EG]>[CE] | %4
 [B,D]4 [DF]>[DG] | [EA]2 [EG]2 [EA]>[EB] | [EB]2 [EA]2 [EF]>[EG] | [EA]3 [EG] [EA]>[EG] | %8
 [DF]4 D>D | [DG]2 [DG]2 [DG]>[DG] | [DA]2 [DA]2 D>D | [DB]3 [DB] [Dc]>[=E^c] | [Fd]4 [^Fc]>[FB] | %13
 [GB]3 [GB] [GB]>[GB] | [AB]2 !fermata![GB]2 [FA]>[EG] | [DF]2 [DB]2 [CA]>[Ec] | [DB]4 [DF]>[DF] | %17
 [DB]3 [DB] [DA]>[DG] | [EA]2 [EA]2 [EF]>[EF] | [Ec]3 [Ec] [DB]>[Ec] | [Fd]4 [^Fc]>[FB] | %21
 [GB]3 [GB] [GB]>[GB] | [_AB]2 [GB]2 [F=A]>[EG] | [DF]2 [DB]2 [CA]>[Ec] | [DB]4 x3 |] %25
V:2
 x2 | x6 | x6 | x6 | x6 | x6 | x6 | x6 | x4 D>D | x6 | x4 D>D | x6 | x6 | x6 | x6 | x6 | x6 | x6 | %18
 x6 | x6 | x6 | x6 | x6 | x6 | x7 |] %25
V:3
 [B,,B,]>[B,,B,] | [B,,B,]2 [B,,B,]2 F,>F, | [F,A,]2 [F,A,]2 [E,F,]>[D,F,] | %3
 [C,F,]2 [F,,F,]2 [F,,F,]>[A,,F,] | [B,,F,]4 [B,,B,]>[B,,B,] | [C,C]2 [C,A,]2 [C,A,]>[C,B,] | %6
 [F,C]4 [F,A,]>F, | F,3 F, F,>F, | [B,,B,]4 B,>B, | [G,B,]2 [G,B,]2 [G,B,]>[G,B,] | %10
 [^F,C]2 [F,C]2 B,>B, | G,3 G, [F,A,]>[F,A,] | [B,,B,]4 [D,B,]>[D,B,] | %13
 [E,B,]3 [E,B,] [E,B,]>[E,B,] | [E,B,]2 !fermata![E,B,]2 [E,G,]>[E,A,] | %15
 [F,B,]2 [F,B,]2 [F,A,]>F, | [B,,F,]4 [B,,B,]>[B,,B,] | [B,,F,]3 [B,,F,] [B,,F,]>[B,,F,] | %18
 [C,F,]2 [C,F,]2 [F,A,]>[F,A,] | [F,A,]3 [F,A,] [F,G,]>[F,A,] | [B,,B,]4 [D,B,]>[D,B,] | %21
 [E,B,]3 [E,B,] [E,B,]>[E,B,] | [E,B,]2 [E,B,]2 [E,B,]>[E,B,] | [F,B,]2 F,2 F,>[F,A,] | [B,,B,]7 |] %25
V:4
 x2 | x4 F,>F, | x6 | x6 | x6 | x6 | x11/2 F,/ | F,3 F, F,>F, | x4 B,>B, | x6 | x4 B,>B, | %11
 G,3 G, x2 | x6 | x6 | x6 | x11/2 F,/ | x6 | x6 | x6 | x6 | x6 | x6 | x6 | x2 F,2 F,3/2 x/ | x7 |] %25

